Newaita-dark/apps/48/gtk3-widget-factory.svg

<svg height="48pt" viewBox="0 0 48 48" width="48pt" xmlns="http://www.w3.org/2000/svg" xmlns:xlink="http://www.w3.org/1999/xlink"><linearGradient id="a" gradientUnits="userSpaceOnUse" x1="23.81478" x2="23.81478" y1="42.0509045" y2="44.03547050005"><stop offset="0" stop-opacity=".27451"/><stop offset="1" stop-opacity="0"/></linearGradient><linearGradient id="b"><stop offset="0" stop-opacity=".313725"/><stop offset=".222222" stop-opacity=".27451"/><stop offset="1" stop-opacity="0"/></linearGradient><radialGradient id="c" cx="450.908936" cy="189.579361" gradientTransform="matrix(.00000026 -.117199 -.210958 -.00000015 79.684395 95.392999)" gradientUnits="userSpaceOnUse" r="21.166656" xlink:href="#b"/><radialGradient id="d" cx="450.908936" cy="189.579361" gradientTransform="matrix(-.00000026 .117199 .210958 .00000015 -31.80678 -11.291218)" gradientUnits="userSpaceOnUse" r="21.166656" xlink:href="#b"/><radialGradient id="e" cx="450.908936" cy="189.579361" gradientTransform="matrix(-.00000026 -.117199 .210958 -.00000015 -31.80678 95.392999)" gradientUnits="userSpaceOnUse" r="21.166656" xlink:href="#b"/><radialGradient id="f" cx="450.908936" cy="189.579361" gradientTransform="matrix(.00000026 .117199 -.210958 .00000015 79.684393 -11.291219)" gradientUnits="userSpaceOnUse" r="21.166656" xlink:href="#b"/><linearGradient id="g" gradientUnits="userSpaceOnUse" x1="23.814786" x2="23.814786" y1="4.3441580001" y2="42.0509015"><stop offset="0" stop-color="#eee"/><stop offset="1" stop-color="#e0e0e0"/></linearGradient><linearGradient id="h"><stop offset="0" stop-color="#e0e0e0"/><stop offset="1" stop-color="#bdbdbd"/></linearGradient><linearGradient id="i" gradientTransform="matrix(.732143 0 0 1 165.175583 -275.166656)" gradientUnits="userSpaceOnUse" x1="265.873993" x2="265.873993" xlink:href="#h" y1="180.583313" y2="159.416656"/><linearGradient id="j" gradientTransform="matrix(.466667 0 0 1 60.324986 -274.706512)" gradientUnits="userSpaceOnUse" x1="188.232178" x2="188.232178" y1="190.706512" y2="158.956512"><stop offset="0" stop-color="#80cbc4"/><stop offset="1" stop-color="#4db6ac"/></linearGradient><linearGradient id="k" gradientUnits="userSpaceOnUse" x1="73.416672" x2="136.916672" xlink:href="#h" y1="201.083347" y2="201.083347"/><linearGradient id="l" gradientTransform="matrix(.732143 0 0 1 32.883915 -31.74999)" gradientUnits="userSpaceOnUse" x1="273.101654" x2="273.101654" y1="148.833328" y2="212.333328"><stop offset="0" stop-color="#64b5f6"/><stop offset="1" stop-color="#42a5f5"/></linearGradient><linearGradient id="m" gradientTransform="matrix(.732143 0 0 1 32.883915 -137.583328)" gradientUnits="userSpaceOnUse" x1="302.012207" x2="302.012207" y1="212.333328" y2="148.833328"><stop offset="0" stop-color="#eee"/><stop offset="1" stop-color="#bdbdbd"/></linearGradient><linearGradient id="n" gradientUnits="userSpaceOnUse" x1="391.583344" x2="391.583344" y1="27.125" y2="58.875"><stop offset="0" stop-color="#e57373"/><stop offset="1" stop-color="#ef5350"/></linearGradient><path d="m7.691406 42.050781h32.496094v1.984375h-32.496094zm0 0" fill="url(#a)"/><path d="m40.1875 42.050781h3.96875v-1.984375h-3.96875zm0 0" fill="url(#c)"/><path d="m7.691406 42.050781h-3.96875v1.984375h3.96875zm0 0" fill="url(#d)"/><path d="m7.691406 42.050781h-3.96875v-1.984375h3.96875zm0 0" fill="url(#e)"/><path d="m40.1875 42.050781h3.96875v1.984375h-3.96875zm0 0" fill="url(#f)"/><path d="m5.457031 4.34375h36.714844c.820313 0 1.488281.667969 1.488281 1.488281v34.730469c0 .820312-.667968 1.488281-1.488281 1.488281h-36.714844c-.820312 0-1.488281-.667969-1.488281-1.488281v-34.730469c0-.820312.667969-1.488281 1.488281-1.488281zm0 0" fill="url(#g)"/><path d="m5.953125 42.050781c-1.097656 0-1.984375-.886719-1.984375-1.984375v-.25c0 1.101563.886719 1.988282 1.984375 1.988282h35.722656c1.097657 0 1.984375-.886719 1.984375-1.988282v.25c0 1.097656-.886718 1.984375-1.984375 1.984375zm0 0" fill-opacity=".196078"/><path d="m5.953125 4.34375c-1.097656 0-1.984375.886719-1.984375 1.984375v.25c0-1.101563.886719-1.984375 1.984375-1.984375h35.722656c1.097657 0 1.984375.882812 1.984375 1.984375v-.25c0-1.097656-.886718-1.984375-1.984375-1.984375zm0 0" fill="#e6e6e6" fill-opacity=".588235"/><path d="m3.96875 17.121094h39.691406v.246094h-39.691406zm0 0" fill="#e6e6e6" fill-opacity=".588235"/><g stroke-linecap="round"><path d="m223.270345-115.759477h188.440339c6.416054 0 11.62389 4.749546 11.62389 10.582323v10.582323c0 5.874439-5.207836 10.582322-11.62389 10.582322h-188.440339c-6.416054 0-11.62389-4.707883-11.62389-10.582322v-10.582323c0-5.832777 5.207836-10.582323 11.62389-10.582323zm0 0" fill="url(#i)" stroke="#212121" stroke-width="2.56696" transform="matrix(.093759 0 0 .093759 0 20.158175)"/><path d="m92.074541-115.759477h101.615296c4.082943 0 7.374296 3.999618 7.374296 8.874153v13.998663c0 4.916197-3.291353 8.874152-7.374296 8.874152h-101.615296c-4.082944 0-7.415959-3.957955-7.415959-8.874152v-13.998663c0-4.874535 3.333015-8.874153 7.415959-8.874153zm0 0" fill="url(#j)" stroke="#333" stroke-width="2.04939" transform="matrix(.093759 0 0 .093759 0 20.158175)"/><path d="m99.885993 158.734842c20.45638 0 37.03813 16.581749 37.03813 37.038129s-16.58175 37.079793-37.03813 37.079793-37.03813-16.623413-37.03813-37.079793 16.58175-37.038129 37.03813-37.038129zm0 0" fill="url(#k)" stroke="#212121" stroke-width="3" transform="matrix(0 -.093759 .093759 0 0 20.158175)"/><path d="m96.282472 117.093287h315.428212c6.416054 0 11.62389 4.082943 11.62389 9.124128v45.24568c0 5.041185-5.207836 9.124128-11.62389 9.124128h-315.428212c-6.416054 0-11.62389-4.082943-11.62389-9.124128v-45.24568c0-5.041185 5.207836-9.124128 11.62389-9.124128zm0 0" fill="url(#l)" stroke="#212121" stroke-width="2.56696" transform="matrix(.093759 0 0 .093759 0 20.158175)"/></g><path d="m3.96875 16.871094h39.691406v.25h-39.691406zm0 0" fill-opacity=".196078"/><path d="m3.96875 16.996094h39.691406v.246094h-39.691406zm0 0" fill="#333" fill-opacity=".992157"/><path d="m5.457031 4.203125c-.898437 0-1.628906.730469-1.628906 1.628906v34.730469c0 .898438.730469 1.628906 1.628906 1.628906h36.714844c.898437 0 1.628906-.730468 1.628906-1.628906v-34.730469c0-.898437-.730469-1.628906-1.628906-1.628906zm0 .28125h36.714844c.75 0 1.347656.597656 1.347656 1.347656v34.730469c0 .75-.597656 1.347656-1.347656 1.347656h-36.714844c-.75 0-1.347656-.597656-1.347656-1.347656v-34.730469c0-.75.597656-1.347656 1.347656-1.347656zm0 0" fill="#212121"/><path d="m96.282472 11.270059h315.428212c6.416054 0 11.62389 4.082943 11.62389 9.124129v45.245679c0 5.041185-5.207836 9.124129-11.62389 9.124129h-315.428212c-6.416054 0-11.62389-4.082944-11.62389-9.124129v-45.245679c0-5.041186 5.207836-9.124129 11.62389-9.124129zm0 0" fill="url(#m)" stroke="#212121" stroke-linecap="round" stroke-width="2.56696" transform="matrix(.093759 0 0 .093759 0 20.158175)"/><path d="m410.294152 31.768101c-2.083134-2.083134-5.416149-2.083134-7.499284 0l-11.207263 11.248926-11.248926-11.248926c-2.041471-2.083134-5.374486-2.083134-7.457621 0-2.083134 2.083135-2.083134 5.41615 0 7.499284l14.956905 14.956905c2.083135 2.083135 5.41615 2.083135 7.499284 0l14.956905-14.956905c2.083135-2.083134 2.083135-5.416149 0-7.499284zm0 0" fill="url(#n)" stroke="#333" stroke-linecap="square" stroke-linejoin="round" stroke-width="3" transform="matrix(.093759 0 0 .093759 0 20.158175)"/></svg>

<?xml version="1.0" encoding="UTF-8"?>
<svg xmlns="http://www.w3.org/2000/svg" xmlns:xlink="http://www.w3.org/1999/xlink" width="48pt" height="48pt" viewBox="0 0 48 48" version="1.1">
<defs>
<linearGradient id="linear0" gradientUnits="userSpaceOnUse" x1="254" y1="233.5" x2="254" y2="254.666672" gradientTransform="matrix(0.093759,0,0,0.093759,-0.00000572259,20.158178)">
<stop offset="0" style="stop-color:rgb(0%,0%,0%);stop-opacity:0.27451;"/>
<stop offset="1" style="stop-color:rgb(0%,0%,0%);stop-opacity:0;"/>
</linearGradient>
<radialGradient id="radial0" gradientUnits="userSpaceOnUse" cx="450.908936" cy="189.579361" fx="450.908936" fy="189.579361" r="21.166656" gradientTransform="matrix(0.000000261256,-0.117199,-0.210958,-0.000000152308,79.684395,95.392999)">
<stop offset="0" style="stop-color:rgb(0%,0%,0%);stop-opacity:0.313725;"/>
<stop offset="0.222222" style="stop-color:rgb(0%,0%,0%);stop-opacity:0.27451;"/>
<stop offset="1" style="stop-color:rgb(0%,0%,0%);stop-opacity:0;"/>
</radialGradient>
<radialGradient id="radial1" gradientUnits="userSpaceOnUse" cx="450.908936" cy="189.579361" fx="450.908936" fy="189.579361" r="21.166656" gradientTransform="matrix(-0.000000261256,0.117199,0.210958,0.000000152308,-31.80678,-11.291218)">
<stop offset="0" style="stop-color:rgb(0%,0%,0%);stop-opacity:0.313725;"/>
<stop offset="0.222222" style="stop-color:rgb(0%,0%,0%);stop-opacity:0.27451;"/>
<stop offset="1" style="stop-color:rgb(0%,0%,0%);stop-opacity:0;"/>
</radialGradient>
<radialGradient id="radial2" gradientUnits="userSpaceOnUse" cx="450.908936" cy="189.579361" fx="450.908936" fy="189.579361" r="21.166656" gradientTransform="matrix(-0.000000261256,-0.117199,0.210958,-0.000000152308,-31.80678,95.392999)">
<stop offset="0" style="stop-color:rgb(0%,0%,0%);stop-opacity:0.313725;"/>
<stop offset="0.222222" style="stop-color:rgb(0%,0%,0%);stop-opacity:0.27451;"/>
<stop offset="1" style="stop-color:rgb(0%,0%,0%);stop-opacity:0;"/>
</radialGradient>
<radialGradient id="radial3" gradientUnits="userSpaceOnUse" cx="450.908936" cy="189.579361" fx="450.908936" fy="189.579361" r="21.166656" gradientTransform="matrix(0.000000261256,0.117199,-0.210958,0.000000152308,79.684393,-11.291219)">
<stop offset="0" style="stop-color:rgb(0%,0%,0%);stop-opacity:0.313725;"/>
<stop offset="0.222222" style="stop-color:rgb(0%,0%,0%);stop-opacity:0.27451;"/>
<stop offset="1" style="stop-color:rgb(0%,0%,0%);stop-opacity:0;"/>
</radialGradient>
<linearGradient id="linear1" gradientUnits="userSpaceOnUse" x1="254" y1="-168.666656" x2="254" y2="233.5" gradientTransform="matrix(0.093759,0,0,0.093759,0,20.158175)">
<stop offset="0" style="stop-color:rgb(93.333333%,93.333333%,93.333333%);stop-opacity:1;"/>
<stop offset="1" style="stop-color:rgb(87.843137%,87.843137%,87.843137%);stop-opacity:1;"/>
</linearGradient>
<linearGradient id="linear2" gradientUnits="userSpaceOnUse" x1="265.873993" y1="180.583313" x2="265.873993" y2="159.416656" gradientTransform="matrix(0.732143,0,0,1,165.175583,-275.166656)">
<stop offset="0" style="stop-color:rgb(87.843137%,87.843137%,87.843137%);stop-opacity:1;"/>
<stop offset="1" style="stop-color:rgb(74.117647%,74.117647%,74.117647%);stop-opacity:1;"/>
</linearGradient>
<linearGradient id="linear3" gradientUnits="userSpaceOnUse" x1="188.232178" y1="190.706512" x2="188.232178" y2="158.956512" gradientTransform="matrix(0.466667,0,0,1,60.324986,-274.706512)">
<stop offset="0" style="stop-color:rgb(50.196078%,79.607843%,76.862745%);stop-opacity:1;"/>
<stop offset="1" style="stop-color:rgb(30.196078%,71.372549%,67.45098%);stop-opacity:1;"/>
</linearGradient>
<linearGradient id="linear4" gradientUnits="userSpaceOnUse" x1="264.583313" y1="170.000015" x2="328.083313" y2="170.000015" gradientTransform="matrix(1,0,0,1,-191.166641,31.083332)">
<stop offset="0" style="stop-color:rgb(87.843137%,87.843137%,87.843137%);stop-opacity:1;"/>
<stop offset="1" style="stop-color:rgb(74.117647%,74.117647%,74.117647%);stop-opacity:1;"/>
</linearGradient>
<linearGradient id="linear5" gradientUnits="userSpaceOnUse" x1="273.101654" y1="148.833328" x2="273.101654" y2="212.333328" gradientTransform="matrix(0.732143,0,0,1,32.883915,-31.74999)">
<stop offset="0" style="stop-color:rgb(39.215686%,70.980392%,96.470588%);stop-opacity:1;"/>
<stop offset="1" style="stop-color:rgb(25.882353%,64.705882%,96.078431%);stop-opacity:1;"/>
</linearGradient>
<linearGradient id="linear6" gradientUnits="userSpaceOnUse" x1="302.012207" y1="212.333328" x2="302.012207" y2="148.833328" gradientTransform="matrix(0.732143,0,0,1,32.883915,-137.583328)">
<stop offset="0" style="stop-color:rgb(93.333333%,93.333333%,93.333333%);stop-opacity:1;"/>
<stop offset="1" style="stop-color:rgb(74.117647%,74.117647%,74.117647%);stop-opacity:1;"/>
</linearGradient>
<linearGradient id="linear7" gradientUnits="userSpaceOnUse" x1="391.583344" y1="27.125" x2="391.583344" y2="58.875" gradientTransform="matrix(1,0,0,1,0,0)">
<stop offset="0" style="stop-color:rgb(89.803922%,45.098039%,45.098039%);stop-opacity:1;"/>
<stop offset="1" style="stop-color:rgb(93.72549%,32.54902%,31.372549%);stop-opacity:1;"/>
</linearGradient>
</defs>
<g id="surface1">
<path style=" stroke:none;fill-rule:nonzero;fill:url(#linear0);" d="M 7.691406 42.050781 L 40.1875 42.050781 L 40.1875 44.035156 L 7.691406 44.035156 Z M 7.691406 42.050781 "/>
<path style=" stroke:none;fill-rule:nonzero;fill:url(#radial0);" d="M 40.1875 42.050781 L 44.15625 42.050781 L 44.15625 40.066406 L 40.1875 40.066406 Z M 40.1875 42.050781 "/>
<path style=" stroke:none;fill-rule:nonzero;fill:url(#radial1);" d="M 7.691406 42.050781 L 3.722656 42.050781 L 3.722656 44.035156 L 7.691406 44.035156 Z M 7.691406 42.050781 "/>
<path style=" stroke:none;fill-rule:nonzero;fill:url(#radial2);" d="M 7.691406 42.050781 L 3.722656 42.050781 L 3.722656 40.066406 L 7.691406 40.066406 Z M 7.691406 42.050781 "/>
<path style=" stroke:none;fill-rule:nonzero;fill:url(#radial3);" d="M 40.1875 42.050781 L 44.15625 42.050781 L 44.15625 44.035156 L 40.1875 44.035156 Z M 40.1875 42.050781 "/>
<path style=" stroke:none;fill-rule:nonzero;fill:url(#linear1);" d="M 5.457031 4.34375 L 42.171875 4.34375 C 42.992188 4.34375 43.660156 5.011719 43.660156 5.832031 L 43.660156 40.5625 C 43.660156 41.382812 42.992188 42.050781 42.171875 42.050781 L 5.457031 42.050781 C 4.636719 42.050781 3.96875 41.382812 3.96875 40.5625 L 3.96875 5.832031 C 3.96875 5.011719 4.636719 4.34375 5.457031 4.34375 Z M 5.457031 4.34375 "/>
<path style=" stroke:none;fill-rule:nonzero;fill:rgb(0%,0%,0%);fill-opacity:0.196078;" d="M 5.953125 42.050781 C 4.855469 42.050781 3.96875 41.164062 3.96875 40.066406 L 3.96875 39.816406 C 3.96875 40.917969 4.855469 41.804688 5.953125 41.804688 L 41.675781 41.804688 C 42.773438 41.804688 43.660156 40.917969 43.660156 39.816406 L 43.660156 40.066406 C 43.660156 41.164062 42.773438 42.050781 41.675781 42.050781 Z M 5.953125 42.050781 "/>
<path style=" stroke:none;fill-rule:nonzero;fill:rgb(90.196079%,90.196079%,90.196079%);fill-opacity:0.588235;" d="M 5.953125 4.34375 C 4.855469 4.34375 3.96875 5.230469 3.96875 6.328125 L 3.96875 6.578125 C 3.96875 5.476562 4.855469 4.59375 5.953125 4.59375 L 41.675781 4.59375 C 42.773438 4.59375 43.660156 5.476562 43.660156 6.578125 L 43.660156 6.328125 C 43.660156 5.230469 42.773438 4.34375 41.675781 4.34375 Z M 5.953125 4.34375 "/>
<path style=" stroke:none;fill-rule:nonzero;fill:rgb(90.196079%,90.196079%,90.196079%);fill-opacity:0.588235;" d="M 3.96875 17.121094 L 43.660156 17.121094 L 43.660156 17.367188 L 3.96875 17.367188 Z M 3.96875 17.121094 "/>
<path style="fill-rule:nonzero;fill:url(#linear2);stroke-width:2.56696;stroke-linecap:round;stroke-linejoin:miter;stroke:rgb(12.941177%,12.941177%,12.941177%);stroke-opacity:1;stroke-miterlimit:4;" d="M 223.270345 -115.759477 L 411.710684 -115.759477 C 418.126738 -115.759477 423.334574 -111.009931 423.334574 -105.177154 L 423.334574 -94.594831 C 423.334574 -88.720392 418.126738 -84.012509 411.710684 -84.012509 L 223.270345 -84.012509 C 216.854291 -84.012509 211.646455 -88.720392 211.646455 -94.594831 L 211.646455 -105.177154 C 211.646455 -111.009931 216.854291 -115.759477 223.270345 -115.759477 Z M 223.270345 -115.759477 " transform="matrix(0.093759,0,0,0.093759,0,20.158175)"/>
<path style="fill-rule:nonzero;fill:url(#linear3);stroke-width:2.04939;stroke-linecap:round;stroke-linejoin:miter;stroke:rgb(20%,20%,20%);stroke-opacity:1;stroke-miterlimit:4;" d="M 92.074541 -115.759477 L 193.689837 -115.759477 C 197.77278 -115.759477 201.064133 -111.759859 201.064133 -106.885324 L 201.064133 -92.886661 C 201.064133 -87.970464 197.77278 -84.012509 193.689837 -84.012509 L 92.074541 -84.012509 C 87.991597 -84.012509 84.658582 -87.970464 84.658582 -92.886661 L 84.658582 -106.885324 C 84.658582 -111.759859 87.991597 -115.759477 92.074541 -115.759477 Z M 92.074541 -115.759477 " transform="matrix(0.093759,0,0,0.093759,0,20.158175)"/>
<path style="fill-rule:nonzero;fill:url(#linear4);stroke-width:3;stroke-linecap:round;stroke-linejoin:miter;stroke:rgb(12.941177%,12.941177%,12.941177%);stroke-opacity:1;stroke-miterlimit:4;" d="M 99.885993 158.734842 C 120.342373 158.734842 136.924123 175.316591 136.924123 195.772971 C 136.924123 216.229351 120.342373 232.852764 99.885993 232.852764 C 79.429613 232.852764 62.847863 216.229351 62.847863 195.772971 C 62.847863 175.316591 79.429613 158.734842 99.885993 158.734842 Z M 99.885993 158.734842 " transform="matrix(0.000000000000000006,-0.093759,0.093759,0.000000000000000006,0,20.158175)"/>
<path style="fill-rule:nonzero;fill:url(#linear5);stroke-width:2.56696;stroke-linecap:round;stroke-linejoin:miter;stroke:rgb(12.941177%,12.941177%,12.941177%);stroke-opacity:1;stroke-miterlimit:4;" d="M 96.282472 117.093287 L 411.710684 117.093287 C 418.126738 117.093287 423.334574 121.17623 423.334574 126.217415 L 423.334574 171.463095 C 423.334574 176.50428 418.126738 180.587223 411.710684 180.587223 L 96.282472 180.587223 C 89.866418 180.587223 84.658582 176.50428 84.658582 171.463095 L 84.658582 126.217415 C 84.658582 121.17623 89.866418 117.093287 96.282472 117.093287 Z M 96.282472 117.093287 " transform="matrix(0.093759,0,0,0.093759,0,20.158175)"/>
<path style=" stroke:none;fill-rule:nonzero;fill:rgb(0%,0%,0%);fill-opacity:0.196078;" d="M 3.96875 16.871094 L 43.660156 16.871094 L 43.660156 17.121094 L 3.96875 17.121094 Z M 3.96875 16.871094 "/>
<path style=" stroke:none;fill-rule:nonzero;fill:rgb(20%,20%,20%);fill-opacity:0.992157;" d="M 3.96875 16.996094 L 43.660156 16.996094 L 43.660156 17.242188 L 3.96875 17.242188 Z M 3.96875 16.996094 "/>
<path style=" stroke:none;fill-rule:nonzero;fill:rgb(12.941177%,12.941177%,12.941177%);fill-opacity:1;" d="M 5.457031 4.203125 C 4.558594 4.203125 3.828125 4.933594 3.828125 5.832031 L 3.828125 40.5625 C 3.828125 41.460938 4.558594 42.191406 5.457031 42.191406 L 42.171875 42.191406 C 43.070312 42.191406 43.800781 41.460938 43.800781 40.5625 L 43.800781 5.832031 C 43.800781 4.933594 43.070312 4.203125 42.171875 4.203125 Z M 5.457031 4.484375 L 42.171875 4.484375 C 42.921875 4.484375 43.519531 5.082031 43.519531 5.832031 L 43.519531 40.5625 C 43.519531 41.3125 42.921875 41.910156 42.171875 41.910156 L 5.457031 41.910156 C 4.707031 41.910156 4.109375 41.3125 4.109375 40.5625 L 4.109375 5.832031 C 4.109375 5.082031 4.707031 4.484375 5.457031 4.484375 Z M 5.457031 4.484375 "/>
<path style="fill-rule:nonzero;fill:url(#linear6);stroke-width:2.56696;stroke-linecap:round;stroke-linejoin:miter;stroke:rgb(12.941177%,12.941177%,12.941177%);stroke-opacity:1;stroke-miterlimit:4;" d="M 96.282472 11.270059 L 411.710684 11.270059 C 418.126738 11.270059 423.334574 15.353002 423.334574 20.394188 L 423.334574 65.639867 C 423.334574 70.681052 418.126738 74.763996 411.710684 74.763996 L 96.282472 74.763996 C 89.866418 74.763996 84.658582 70.681052 84.658582 65.639867 L 84.658582 20.394188 C 84.658582 15.353002 89.866418 11.270059 96.282472 11.270059 Z M 96.282472 11.270059 " transform="matrix(0.093759,0,0,0.093759,0,20.158175)"/>
<path style="fill-rule:nonzero;fill:url(#linear7);stroke-width:3;stroke-linecap:square;stroke-linejoin:round;stroke:rgb(20%,20%,20%);stroke-opacity:1;stroke-miterlimit:4;" d="M 410.294152 31.768101 C 408.211018 29.684967 404.878003 29.684967 402.794868 31.768101 L 391.587605 43.017027 L 380.338679 31.768101 C 378.297208 29.684967 374.964193 29.684967 372.881058 31.768101 C 370.797924 33.851236 370.797924 37.184251 372.881058 39.267385 L 387.837963 54.22429 C 389.921098 56.307425 393.254113 56.307425 395.337247 54.22429 L 410.294152 39.267385 C 412.377287 37.184251 412.377287 33.851236 410.294152 31.768101 Z M 410.294152 31.768101 " transform="matrix(0.093759,0,0,0.093759,0,20.158175)"/>
</g>
</svg>
